assets/Shower/Flat/shower_flat.svg

<svg width="32" height="32" viewBox="0 0 32 32" fill="none" xmlns="http://www.w3.org/2000/svg">
<path d="M20.2324 8.23218L22.2324 6.23218L24.5002 7.5L25.768 9.76771L23.768 11.7677L20.2324 8.23218Z" fill="#636363"/>
<path d="M23.3446 21.3444C24.6886 19.7719 25.5002 17.7307 25.5002 15.5C25.5002 10.5294 21.4707 6.5 16.5002 6.5C14.2694 6.5 12.2282 7.31158 10.6558 8.65559L15.5001 16.5L23.3446 21.3444Z" fill="#9B9B9B"/>
<path d="M29.2677 2.73223C30.244 3.70854 30.244 5.29146 29.2677 6.26777L25.7677 9.76774L22.2322 6.23221L25.7322 2.73223C26.7085 1.75592 28.2914 1.75592 29.2677 2.73223Z" fill="#BEBEBE"/>
<path d="M11.0481 8.9519C9.77889 7.6827 7.72111 7.6827 6.4519 8.9519C5.1827 10.2211 5.1827 12.2789 6.4519 13.5481L18.9519 26.0481C20.2211 27.3173 22.2789 27.3173 23.5481 26.0481C24.8173 24.7789 24.8173 22.7211 23.5481 21.4519L11.0481 8.9519Z" fill="#BEBEBE"/>
<path d="M8.06066 16.9393C8.64645 17.5251 8.64645 18.4749 8.06066 19.0607L4.56066 22.5607C3.97487 23.1464 3.02513 23.1464 2.43934 22.5607C1.85355 21.9749 1.85355 21.0251 2.43934 20.4393L5.93934 16.9393C6.52513 16.3536 7.47487 16.3536 8.06066 16.9393Z" fill="#3F5FFF"/>
<path d="M11.5607 20.4393C12.1464 21.0251 12.1464 21.9749 11.5607 22.5607L8.06066 26.0607C7.47487 26.6464 6.52513 26.6464 5.93934 26.0607C5.35355 25.4749 5.35355 24.5251 5.93934 23.9393L9.43934 20.4393C10.0251 19.8536 10.9749 19.8536 11.5607 20.4393Z" fill="#3F5FFF"/>
<path d="M15.0607 26.0607C15.6464 25.4749 15.6464 24.5251 15.0607 23.9393C14.4749 23.3536 13.5251 23.3536 12.9393 23.9393L9.43934 27.4393C8.85355 28.0251 8.85355 28.9749 9.43934 29.5607C10.0251 30.1464 10.9749 30.1464 11.5607 29.5607L15.0607 26.0607Z" fill="#3F5FFF"/>
</svg>

<svg xmlns="http://www.w3.org/2000/svg" width="32" height="32" fill="none"><path fill="#636363" d="m20.232 8.232 2-2L24.5 7.5l1.268 2.268-2 2-3.536-3.536Z"/><path fill="#9B9B9B" d="M23.345 21.344A9 9 0 0 0 10.656 8.655L15.5 16.5l7.845 4.844Z"/><path fill="#BEBEBE" d="M29.268 2.732a2.5 2.5 0 0 1 0 3.536l-3.5 3.5-3.536-3.536 3.5-3.5a2.5 2.5 0 0 1 3.536 0ZM11.048 8.952a3.25 3.25 0 0 0-4.596 4.596l12.5 12.5a3.25 3.25 0 0 0 4.596-4.596l-12.5-12.5Z"/><path fill="#3F5FFF" d="M8.06 16.94a1.5 1.5 0 0 1 0 2.12l-3.5 3.5a1.5 1.5 0 0 1-2.12-2.12l3.5-3.5a1.5 1.5 0 0 1 2.12 0ZM11.56 20.44a1.5 1.5 0 0 1 0 2.12l-3.5 3.5a1.5 1.5 0 0 1-2.12-2.12l3.5-3.5a1.5 1.5 0 0 1 2.12 0ZM15.06 26.06a1.5 1.5 0 0 0-2.12-2.12l-3.5 3.5a1.5 1.5 0 0 0 2.12 2.12l3.5-3.5Z"/></svg>
